svgs/light/circle-dollar-to-slot.svg

<svg xmlns="http://www.w3.org/2000/svg" viewBox="0 0 512 512"><!-- Font Awesome Pro 6.0.0-alpha2 by @fontawesome - https://fontawesome.com License - https://fontawesome.com/license (Commercial License) --><path d="M243.988 270.797C236.178 269.68 230.557 268.098 205.082 259.516C196.77 256.641 187.676 261.203 184.832 269.562C182.02 277.938 186.52 287.016 194.895 289.844C224.238 299.812 231.469 301.289 239.988 302.516V320C239.988 328.844 247.145 336 255.988 336S271.988 328.844 271.988 320V303.201C301.709 299.691 322.576 283.906 327.02 259.484C335.457 213.016 290.113 200.688 260.113 192.516L252.863 190.531C218.801 180.984 214.238 174.375 216.457 162.234C219.457 145.594 244.488 141.719 267.926 145.188C274.488 146.156 282.457 148.234 292.988 151.703C301.363 154.469 310.457 149.891 313.176 141.5C315.957 133.109 311.395 124.062 302.988 121.297C290.676 117.25 280.395 114.727 271.988 113.477V96C271.988 87.156 264.832 80 255.988 80S239.988 87.156 239.988 96V112.803C210.242 116.316 189.404 132.092 184.957 156.516C176.613 202.391 222.301 215.188 244.238 221.344L251.707 223.391C289.926 233.797 298.113 239.469 295.52 253.766C292.52 270.406 267.551 274.375 243.988 270.797ZM464 352C455.156 352 448 359.156 448 368S455.156 384 464 384C472.812 384 480 391.172 480 400V464C480 472.828 472.812 480 464 480H48C39.188 480 32 472.828 32 464V400C32 391.172 39.188 384 48 384C56.844 384 64 376.844 64 368S56.844 352 48 352C21.531 352 0 373.531 0 400V464C0 490.469 21.531 512 48 512H464C490.469 512 512 490.469 512 464V400C512 373.531 490.469 352 464 352ZM256 416C370.875 416 464 322.875 464 208S370.875 0 256 0S48 93.125 48 208S141.125 416 256 416ZM256 32C353.047 32 432 110.953 432 208S353.047 384 256 384S80 305.047 80 208S158.953 32 256 32Z"/></svg>

<svg xmlns="http://www.w3.org/2000/svg" viewBox="0 0 512 512"><!--! Font Awesome Pro 6.0.0-alpha3 by @fontawesome - https://fontawesome.com License - https://fontawesome.com/license (Commercial License) --><path d="M243.1 270.8C236.2 269.7 230.6 268.1 205.1 259.5C196.8 256.6 187.7 261.2 184.8 269.6C182 277.9 186.5 287 194.9 289.8c29.34 9.969 36.57 11.45 45.09 12.67V320c0 8.844 7.191 16 16.03 16s15.97-7.156 15.97-16V303.2c29.72-3.51 50.59-19.29 55.03-43.72C335.5 213 290.1 200.7 260.1 192.5L252.9 190.5C218.8 180.1 214.2 174.4 216.5 162.2c3-16.64 28.03-20.52 51.47-17.05c6.562 .9687 14.53 3.047 25.06 6.516c8.375 2.766 17.47-1.812 20.19-10.2c2.781-8.391-1.781-17.44-10.19-20.2c-12.31-4.047-22.59-6.57-31-7.82V96c0-8.844-7.122-16-15.97-16S239.1 87.16 239.1 96v16.8C210.2 116.3 189.4 132.1 184.1 156.5C176.6 202.4 222.3 215.2 244.2 221.3L251.7 223.4c38.22 10.41 46.41 16.08 43.81 30.38C292.5 270.4 267.6 274.4 243.1 270.8zM464 352c-8.844 0-16 7.156-16 16s7.156 16 16 16c8.812 0 16 7.172 16 16v64c0 8.828-7.188 16-16 16h-416C39.19 480 32 472.8 32 464v-64C32 391.2 39.19 384 48 384C56.84 384 64 376.8 64 368S56.84 352 48 352C21.53 352 0 373.5 0 400v64C0 490.5 21.53 512 48 512h416c26.47 0 48-21.53 48-48v-64C512 373.5 490.5 352 464 352zM256 416c114.9 0 208-93.13 208-208S370.9 0 256 0S48 93.13 48 208S141.1 416 256 416zM256 32c97.05 0 176 78.95 176 176S353 384 256 384S80 305 80 208S158.1 32 256 32z"/></svg>
